frontend/assets/images/svgs/cross.svg

<svg xmlns="http://www.w3.org/2000/svg" width="16" height="16" viewBox="0 0 16 16"><path fill="#DDDCDC" d="M8 0c-4.418 0-8 3.582-8 8 0 4.417 3.582 8 8 8s8-3.583 8-8c0-4.418-3.582-8-8-8zm4 11.49l-.425.425-3.565-3.11-3.5 3.195-.51-.51 3.186-3.49-3.186-3.49.51-.51 3.49 3.186 3.49-3.186.51.51-3.186 3.49 3.186 3.49z"/></svg>

<svg xmlns="http://www.w3.org/2000/svg" width="16" height="16" viewBox="0 0 16 16"><path fill="#DDDCDC" d="M8 0C3.582 0 0 3.582 0 8c0 4.417 3.582 8 8 8s8-3.583 8-8c0-4.418-3.582-8-8-8zm4 11.49l-.425.425-3.565-3.11L4.51 12 4 11.49 7.186 8 4 4.51 4.51 4 8 7.186 11.49 4l.51.51L8.814 8 12 11.49z"/></svg>
